icons/git.svg

<svg xmlns="http://www.w3.org/2000/svg" viewBox="0 0 24 24" fill="currentColor">
  <path d="M7.5 4.25c-.69036 0-1.25.55964-1.25 1.25s.55964 1.25 1.25 1.25 1.25-.55964 1.25-1.25-.55964-1.25-1.25-1.25Zm2.75 1.25c0 1.25878-.84575 2.32002-2 2.64648v3.59112c3.8475-.13 5.684-1.2576 6.5675-2.23932.4594-.51044.6919-1.01365.8103-1.38949C14.5365 7.74411 13.75 6.71391 13.75 5.5c0-1.51878 1.2312-2.75 2.75-2.75s2.75 1.23122 2.75 2.75c0 1.29017-.8885 2.37283-2.0869 2.66953-.0223.10052-.0502.21013-.0854.32723-.1672.55755-.4974 1.28515-1.1452 2.00494-1.2384 1.376-3.524 2.6049-7.6825 2.7366v2.6152c1.15425.3265 2 1.3877 2 2.6465 0 1.5188-1.23122 2.75-2.75 2.75s-2.75-1.2312-2.75-2.75c0-1.2588.84575-2.32 2-2.6465V8.14648c-1.15425-.32646-2-1.3877-2-2.64648 0-1.51878 1.23122-2.75 2.75-2.75s2.75 1.23122 2.75 2.75Zm6.25 1.25c.6904 0 1.25-.55964 1.25-1.25s-.5596-1.25-1.25-1.25-1.25.55964-1.25 1.25.5596 1.25 1.25 1.25ZM6.25 18.5c0-.6904.55964-1.25 1.25-1.25s1.25.5596 1.25 1.25-.55964 1.25-1.25 1.25-1.25-.5596-1.25-1.25Z"/>
</svg>

<svg width="24" height="24" viewBox="0 0 24 24" fill="none" xmlns="http://www.w3.org/2000/svg">
<path fill-rule="evenodd" clip-rule="evenodd" d="M7.5 4.25C6.80964 4.25 6.25 4.80964 6.25 5.5C6.25 6.19036 6.80964 6.75 7.5 6.75C8.19036 6.75 8.75 6.19036 8.75 5.5C8.75 4.80964 8.19036 4.25 7.5 4.25ZM10.25 5.5C10.25 6.75878 9.40425 7.82002 8.25 8.14648V11.7376C12.0975 11.6076 13.934 10.48 14.8175 9.49828C15.2769 8.98784 15.5094 8.48463 15.6278 8.10879C14.5365 7.74411 13.75 6.71391 13.75 5.5C13.75 3.98122 14.9812 2.75 16.5 2.75C18.0188 2.75 19.25 3.98122 19.25 5.5C19.25 6.79017 18.3615 7.87283 17.1631 8.16953C17.1408 8.27005 17.1129 8.37966 17.0777 8.49676C16.9105 9.05431 16.5803 9.78191 15.9325 10.5017C14.6941 11.8777 12.4085 13.1066 8.25 13.2383V15.8535C9.40425 16.18 10.25 17.2412 10.25 18.5C10.25 20.0188 9.01878 21.25 7.5 21.25C5.98122 21.25 4.75 20.0188 4.75 18.5C4.75 17.2412 5.59575 16.18 6.75 15.8535V12.5V8.14648C5.59575 7.82002 4.75 6.75878 4.75 5.5C4.75 3.98122 5.98122 2.75 7.5 2.75C9.01878 2.75 10.25 3.98122 10.25 5.5ZM16.5 6.75C17.1904 6.75 17.75 6.19036 17.75 5.5C17.75 4.80964 17.1904 4.25 16.5 4.25C15.8096 4.25 15.25 4.80964 15.25 5.5C15.25 6.19036 15.8096 6.75 16.5 6.75ZM6.25 18.5C6.25 17.8096 6.80964 17.25 7.5 17.25C8.19036 17.25 8.75 17.8096 8.75 18.5C8.75 19.1904 8.19036 19.75 7.5 19.75C6.80964 19.75 6.25 19.1904 6.25 18.5Z" fill="black"/>
</svg>
